;FLAVOR:Marlin
;TIME:4209
;Filament used: 4.17297m
;Layer height: 0.2
;MINX:136.835
;MINY:145.347
;MINZ:0.2
;MAXX:198.153
;MAXY:179.653
;MAXZ:15
;Generated with Cura_SteamEngine 4.13.0
M140 S70
M105
M190 S70
M104 S215
M105
M109 S215
M82 ;absolute extrusion mode
G21 
G90
M82
M107
G28 X0 Y0
G28 Z0
G1 Z3.0 F3000
G92 E0
G1 X20 Y20.0 Z0.28 F3000
G92 E0
G1 X10 Y10.0 Z0.28 F3000.0
G1 X10 Y170.0 Z0.28 F1500.0 E12
G1 X10.3 Y10.0 Z0.28 F1500.0 E18
G92 E0
G1 Z1.0 F3000
M117 Printing
G5
G92 E0
G92 E0
G1 F1500 E-6.5
;LAYER_COUNT:75
;LAYER:0
M107
;MESH:base.stl
G0 F6000 X183.938 Y154.5 Z0.2
;TYPE:WALL-INNER
G1 F1500 E0
G1 F900 X186.969 Y159.75 E0.20163
G1 X193.031 Y159.75 E0.40325
G1 X196.062 Y154.5 E0.60488
G1 X193.031 Y149.25 E0.80651
G1 X186.969 Y149.25 E1.00813
G1 X183.938 Y154.5 E1.20976
G0 F6000 X184.4 Y154.5
G1 F900 X187.2 Y159.35 E1.39602
G1 X192.8 Y159.35 E1.58228
G1 X195.6 Y154.5 E1.76854
G1 X192.8 Y149.65 E1.9548
G1 X187.2 Y149.65 E2.14106
G1 X184.4 Y154.5 E2.32733
G0 F6000 X184.862 Y154.5
;TYPE:WALL-OUTER
G1 F900 X187.431 Y158.95 E2.49823
G1 X192.569 Y158.95 E2.66912
G1 X195.138 Y154.5 E2.84002
G1 X192.569 Y150.05 E3.01092
G1 X187.431 Y150.05 E3.18181
G1 X184.862 Y154.5 E3.35271
G1 F1500 E-3.14729
G0 F6000 X184.603 Y154.349
G0 X184.912 Y157.361
G0 X186.637 Y160.326
G0 X193.363 Y160.326
G0 X195.9 Y155.98
G0 X195.9 Y169.02
G0 X193.363 Y164.674
G0 X187.916 Y164.674
G0 X183.938 Y170.5
;TYPE:WALL-INNER
G1 F1500 E3.35271
G1 F900 X186.969 Y175.75 E3.55434
G1 X193.031 Y175.75 E3.75596
G1 X196.062 Y170.5 E3.95759
G1 X193.031 Y165.25 E4.15922
G1 X186.969 Y165.25 E4.36084
G1 X183.938 Y170.5 E4.56247
G0 F6000 X184.4 Y170.5
G1 F900 X187.2 Y175.35 E4.74873
G1 X192.8 Y175.35 E4.93499
G1 X195.6 Y170.5 E5.12125
G1 X192.8 Y165.65 E5.30752
G1 X187.2 Y165.65 E5.49377
G1 X184.4 Y170.5 E5.68004
G0 F6000 X184.862 Y170.5
;TYPE:WALL-OUTER
G1 F900 X187.431 Y174.95 E5.85094
G1 X192.569 Y174.95 E6.02183
G1 X195.138 Y170.5 E6.19273
G1 X192.569 Y166.05 E6.36363
G1 X187.431 Y166.05 E6.53452
G1 X184.862 Y170.5 E6.70542
G0 F6000 X184.603 Y170.349
G0 X187.296 Y175.184
G0 X193.548 Y175.99
G0 X195.9 Y171.98
G0 X196.1 Y177.6
;TYPE:WALL-INNER
G1 F900 X138.9 Y177.6 E8.6079
G1 X138.9 Y147.4 E9.61236
G1 X196.1 Y147.4 E11.51484
G1 X196.1 Y153.022 E11.70183
G1 X196.1 Y153.766 E11.72657
G1 X195.728 Y153.122 E11.73936
G1 X193.262 Y148.85 E11.90342
G1 X186.738 Y148.85 E12.12041
G1 X183.476 Y154.5 E12.3374
G1 X186.738 Y160.15 E12.55439
G1 X193.262 Y160.15 E12.77138
G1 X195.728 Y155.878 E12.93544
G1 X196.1 Y155.234 E12.96017
G1 X196.1 Y155.978 E12.97298
G1 X196.1 Y169.022 E13.40682
G1 X196.1 Y169.766 E13.43157
G1 X195.728 Y169.122 E13.44435
G1 X193.262 Y164.85 E13.60841
G1 X186.738 Y164.85 E13.8254
G1 X183.476 Y170.5 E14.04239
G1 X186.738 Y176.15 E14.25938
G1 X193.262 Y176.15 E14.47637
G1 X195.728 Y171.878 E14.64043
G1 X196.1 Y171.234 E14.66517
G1 X196.1 Y171.978 E14.67798
G1 X196.1 Y177.6 E14.86496
G0 F6000 X196.5 Y178
G1 F900 X138.5 Y178 E16.79405
G1 X138.5 Y147 E17.82512
G1 X196.5 Y147 E19.7542
G1 X196.5 Y178 E20.78527
G0 F6000 X196.9 Y178.4
G1 F900 X138.1 Y178.4 E22.74096
G1 X138.1 Y146.6 E23.79864
G1 X196.9 Y146.6 E25.75433
G1 X196.9 Y178.4 E26.812
G0 F6000 X197.3 Y178.8
;TYPE:WALL-OUTER
G1 F900 X137.7 Y178.8 E28.79431
G1 X137.7 Y146.2 E29.87859
G1 X197.3 Y146.2 E31.86089
G1 X197.3 Y178.8 E32.94517
G0 F6000 X197.03 Y178.53
G0 X195.99 Y177.21
G0 X195.71 Y177.21
;TYPE:SKIN
G1 F900 X139.29 Y177.21 E34.82171
G1 X139.29 Y147.79 E35.80022
G1 X195.71 Y147.79 E37.67676
G1 X195.71 Y152.31 E37.8271
G1 X193.487 Y148.46 E37.97496
G1 X186.513 Y148.46 E38.20692
G1 X183.026 Y154.5 E38.43888
G1 X186.513 Y160.54 E38.67085
G1 X193.487 Y160.54 E38.9028
G1 X195.71 Y156.69 E39.05067
G1 X195.71 Y168.31 E39.43715
G1 X193.487 Y164.46 E39.58502
G1 X186.513 Y164.46 E39.81697
G1 X183.026 Y170.5 E40.04894
G1 X186.513 Y176.54 E40.2809
G1 X193.487 Y176.54 E40.51286
G1 X195.71 Y172.69 E40.66073
G1 X195.71 Y177.21 E40.81106
G0 F6000 X195.99 Y177.21
G0 X195.99 Y148.032
G0 X195.549 Y148.032
G1 F900 X195.467 Y147.95 E40.81492
G0 F6000 X194.901 Y147.95
G1 F900 X195.549 Y148.597 E40.84537
G0 F6000 X195.549 Y149.163
G1 F900 X194.336 Y147.95 E40.90243
G0 F6000 X193.77 Y147.95
G1 F900 X195.549 Y149.729 E40.98611
G0 F6000 X195.549 Y150.294
G1 F900 X193.61 Y148.355 E41.07731
G1 X193.554 Y148.299
G1 X193.204 Y147.95 E41.09375
G0 F6000 X192.988 Y148.299
G1 F900 X192.639 Y147.95 E41.11017
G0 F6000 X192.422 Y148.299
G1 F900 X192.073 Y147.95 E41.12659
G0 F6000 X191.857 Y148.299
G1 F900 X191.507 Y147.95 E41.14302
G0 F6000 X191.291 Y148.299
G1 F900 X190.942 Y147.95 E41.15944
G0 F6000 X190.725 Y148.299
G1 F900 X190.376 Y147.95 E41.17586
G0 F6000 X190.16 Y148.299
G1 F900 X189.81 Y147.95 E41.1923
G0 F6000 X189.594 Y148.299
G1 F900 X189.245 Y147.95 E41.20871
G0 F6000 X189.028 Y148.299
G1 F900 X188.679 Y147.95 E41.22513
G0 F6000 X188.463 Y148.299
G1 F900 X188.113 Y147.95 E41.24157
G0 F6000 X187.897 Y148.299
G1 F900 X187.548 Y147.95 E41.25798
G0 F6000 X187.331 Y148.299
G1 F900 X186.982 Y147.95 E41.2744
G0 F6000 X186.765 Y148.299
G1 F900 X186.416 Y147.95 E41.29081
G0 F6000 X186.34 Y148.439
G1 F900 X185.85 Y147.95 E41.31384
G0 F6000 X185.285 Y147.95
G1 F900 X186.133 Y148.797 E41.3537
G0 F6000 X185.925 Y149.156
G1 F900 X184.719 Y147.95 E41.41043
G0 F6000 X184.153 Y147.95
G1 F900 X185.719 Y149.515 E41.48407
G0 F6000 X185.512 Y149.874
G1 F900 X183.588 Y147.95 E41.57456
G0 F6000 X183.022 Y147.95
G1 F900 X185.305 Y150.232 E41.68193
G0 F6000 X185.097 Y150.591
G1 F900 X182.456 Y147.95 E41.80615
G0 F6000 X181.891 Y147.95
G1 F900 X184.89 Y150.949 E41.94721
G0 F6000 X184.684 Y151.308
G1 F900 X181.325 Y147.95 E42.10519
G0 F6000 X180.759 Y147.95
G1 F900 X184.477 Y151.667 E42.28005
G0 F6000 X184.269 Y152.025
G1 F900 X180.194 Y147.95 E42.47172
G0 F6000 X179.628 Y147.95
G1 F900 X184.062 Y152.384 E42.68029
G0 F6000 X183.855 Y152.742
G1 F900 X179.062 Y147.95 E42.90571
G0 F6000 X178.497 Y147.95
G1 F900 X183.648 Y153.101 E43.148
G0 F6000 X183.441 Y153.46
G1 F900 X177.931 Y147.95 E43.40717
G0 F6000 X177.365 Y147.95
G1 F900 X183.234 Y153.819 E43.68323
G0 F6000 X183.027 Y154.177
G1 F900 X176.8 Y147.95 E43.97613
G0 F6000 X176.234 Y147.95
G1 F900 X182.918 Y154.634 E44.29052
G0 F6000 X183.334 Y154.5
G0 X184.072 Y155.752
G0 X183.69 Y155.972
G1 F900 X175.668 Y147.95 E44.66785
G0 F6000 X175.102 Y147.95
G1 F900 X184.463 Y157.31 E45.10814
G0 F6000 X184.844 Y157.09
G0 X185.617 Y158.429
G0 X185.236 Y158.649
G1 F900 X174.537 Y147.95 E45.61139
G0 F6000 X173.971 Y147.95
G1 F900 X186.009 Y159.987 E46.1776
G0 F6000 X186.39 Y159.767
G0 X186.722 Y160.26
G0 X186.722 Y160.7
G1 F900 X190.321 Y164.299 E46.34689
G0 F6000 X190.887 Y164.299
G1 F900 X187.287 Y160.7 E46.51619
G0 F6000 X187.853 Y160.7
G1 F900 X191.452 Y164.299 E46.68548
G0 F6000 X192.018 Y164.299
G1 F900 X188.419 Y160.7 E46.85477
G0 F6000 X188.984 Y160.7
G1 F900 X192.584 Y164.299 E47.02408
G0 F6000 X193.149 Y164.299
G1 F900 X189.55 Y160.7 E47.19336
G0 F6000 X190.116 Y160.7
G1 F900 X195.549 Y166.134 E47.44894
G0 F6000 X195.549 Y166.699
G1 F900 X194.163 Y165.313 E47.51413
G0 F6000 X193.783 Y165.532
G0 X195.9 Y169.02
G0 X195.99 Y165.568
G0 X195.549 Y165.568
G1 F900 X190.681 Y160.7 E47.74311
G0 F6000 X191.247 Y160.7
G1 F900 X195.549 Y165.002 E47.94546
G0 F6000 X195.549 Y164.436
G1 F900 X191.813 Y160.7 E48.12119
G0 F6000 X192.379 Y160.7
G1 F900 X195.549 Y163.871 E48.27032
G0 F6000 X195.549 Y163.305
G1 F900 X192.944 Y160.7 E48.39285
G0 F6000 X193.51 Y160.7
G1 F900 X195.549 Y162.739 E48.48876
G0 F6000 X195.549 Y162.174
G1 F900 X193.759 Y160.384 E48.57296
G0 F6000 X193.967 Y160.026
G1 F900 X195.549 Y161.608 E48.64737
G0 F6000 X195.549 Y161.042
G1 F900 X194.174 Y159.667 E48.71204
G0 F6000 X194.381 Y159.309
G1 F900 X195.549 Y160.477 E48.76698
G0 F6000 X195.549 Y159.911
G1 F900 X194.588 Y158.949 E48.81221
G0 F6000 X194.795 Y158.591
G1 F900 X195.549 Y159.345 E48.84767
G0 F6000 X195.549 Y158.78
G1 F900 X195.002 Y158.232 E48.87343
G0 F6000 X195.209 Y157.874
G1 F900 X195.549 Y158.214 E48.88942
G0 F6000 X195.549 Y157.648
G1 F900 X195.416 Y157.515 E48.89568
G0 F6000 X195.038 Y157.295
G0 X195.9 Y153.02
G0 X195.99 Y151.426
G0 X195.549 Y151.426
G1 F900 X195.155 Y151.032 E48.91421
G0 F6000 X195.549 Y150.86
G1 F900 X194.382 Y149.693 E48.9691
G0 F6000 X194.002 Y149.912
G0 X195.9 Y155.98
G0 X195.9 Y169.02
G0 X193.846 Y165.501
G0 X189.755 Y164.74
G0 X189.755 Y164.299
G1 F900 X173.405 Y147.95 E49.73813
G0 F6000 X172.84 Y147.95
G1 F900 X189.189 Y164.299 E50.50714
G0 F6000 X188.624 Y164.299
G1 F900 X172.274 Y147.95 E51.27617
G0 F6000 X171.708 Y147.95
G1 F900 X188.058 Y164.299 E52.0452
G0 F6000 X187.492 Y164.299
G1 F900 X171.143 Y147.95 E52.8142
G0 F6000 X170.577 Y147.95
G1 F900 X186.927 Y164.299 E53.58324
G0 F6000 X186.399 Y164.337
G1 F900 X170.011 Y147.95 E54.35405
G0 F6000 X169.446 Y147.95
G1 F900 X186.192 Y164.696 E55.14173
G0 F6000 X185.985 Y165.054
G1 F900 X168.88 Y147.95 E55.94628
G0 F6000 X168.314 Y147.95
G1 F900 X185.778 Y165.413 E56.76771
G0 F6000 X185.57 Y165.771
G1 F900 X167.749 Y147.95 E57.60595
G0 F6000 X167.183 Y147.95
G1 F900 X185.364 Y166.131 E58.46113
G0 F6000 X185.157 Y166.489
G1 F900 X166.617 Y147.95 E59.33317
G0 F6000 X166.052 Y147.95
G1 F900 X184.95 Y166.848 E60.22208
G0 F6000 X184.742 Y167.206
G1 F900 X165.486 Y147.95 E61.12782
G0 F6000 X164.92 Y147.95
G1 F900 X184.535 Y167.565 E62.05045
G0 F6000 X184.329 Y167.924
G1 F900 X164.354 Y147.95 E62.98999
G0 F6000 X163.789 Y147.95
G1 F900 X184.122 Y168.282 E63.94637
G0 F6000 X183.914 Y168.641
G1 F900 X163.223 Y147.95 E64.91961
G0 F6000 X162.657 Y147.95
G1 F900 X183.707 Y168.999 E65.90971
G0 F6000 X183.5 Y169.358
G1 F900 X162.092 Y147.95 E66.91668
G0 F6000 X161.526 Y147.95
G1 F900 X183.294 Y169.717 E67.94055
G0 F6000 X183.086 Y170.076
G1 F900 X160.96 Y147.95 E68.98129
G0 F6000 X160.395 Y147.95
G1 F900 X182.879 Y170.434 E70.03887
G0 F6000 X183.334 Y170.5
G0 X183.853 Y171.373
G0 X183.472 Y171.593
G1 F900 X159.829 Y147.95 E71.15097
G0 F6000 X159.263 Y147.95
G1 F900 X184.245 Y172.931 E72.32602
G0 F6000 X184.626 Y172.712
G0 X185.398 Y174.049
G0 X185.017 Y174.269
G1 F900 X158.698 Y147.95 E73.56398
G0 F6000 X158.132 Y147.95
G1 F900 X185.789 Y175.607 E74.86488
G0 F6000 X186.17 Y175.387
G0 X193.363 Y176.326
G0 X195.9 Y171.98
G0 X195.918 Y177.418
G0 X185.534 Y177.49
G0 X185.534 Y177.049
G1 F900 X156.435 Y147.95 E76.23361
G0 F6000 X155.869 Y147.95
G1 F900 X184.969 Y177.049 E77.60236
G0 F6000 X184.403 Y177.049
G1 F900 X155.303 Y147.95 E78.97111
G0 F6000 X154.738 Y147.95
G1 F900 X183.837 Y177.049 E80.33984
G0 F6000 X183.272 Y177.049
G1 F900 X154.172 Y147.95 E81.70859
G0 F6000 X153.606 Y147.95
G1 F900 X182.706 Y177.049 E83.07734
G0 F6000 X182.14 Y177.049
G1 F900 X153.041 Y147.95 E84.44607
G0 F6000 X152.475 Y147.95
G1 F900 X181.575 Y177.049 E85.81482
G0 F6000 X181.009 Y177.049
G1 F900 X151.909 Y147.95 E87.18358
G0 F6000 X151.344 Y147.95
G1 F900 X180.443 Y177.049 E88.5523
G0 F6000 X179.878 Y177.049
G1 F900 X150.778 Y147.95 E89.92105
G0 F6000 X150.212 Y147.95
G1 F900 X179.312 Y177.049 E91.28981
G0 F6000 X178.746 Y177.049
G1 F900 X149.647 Y147.95 E92.65853
G0 F6000 X149.081 Y147.95
G1 F900 X178.181 Y177.049 E94.02728
G0 F6000 X177.615 Y177.049
G1 F900 X148.515 Y147.95 E95.39604
G0 F6000 X147.95 Y147.95
G1 F900 X177.049 Y177.049 E96.76476
G0 F6000 X176.483 Y177.049
G1 F900 X147.384 Y147.95 E98.13349
G0 F6000 X146.818 Y147.95
G1 F900 X175.918 Y177.049 E99.50224
G0 F6000 X175.352 Y177.049
G1 F900 X146.253 Y147.95 E100.87097
G0 F6000 X145.687 Y147.95
G1 F900 X174.786 Y177.049 E102.2397
G0 F6000 X174.221 Y177.049
G1 F900 X145.121 Y147.95 E103.60845
G0 F6000 X144.555 Y147.95
G1 F900 X173.655 Y177.049 E104.9772
G0 F6000 X173.089 Y177.049
G1 F900 X143.99 Y147.95 E106.34593
G0 F6000 X143.424 Y147.95
G1 F900 X172.524 Y177.049 E107.71468
G0 F6000 X171.958 Y177.049
G1 F900 X142.858 Y147.95 E109.08343
G0 F6000 X142.293 Y147.95
G1 F900 X171.392 Y177.049 E110.45216
G0 F6000 X170.827 Y177.049
G1 F900 X141.727 Y147.95 E111.82091
G0 F6000 X141.161 Y147.95
G1 F900 X170.261 Y177.049 E113.18966
G0 F6000 X169.695 Y177.049
G1 F900 X140.596 Y147.95 E114.55839
G0 F6000 X140.03 Y147.95
G1 F900 X169.13 Y177.049 E115.92714
G0 F6000 X168.564 Y177.049
G1 F900 X139.464 Y147.95 E117.29589
G0 F6000 X139.449 Y148.5
G1 F900 X167.998 Y177.049 E118.63875
G0 F6000 X167.432 Y177.049
G1 F900 X139.449 Y149.066 E119.95498
G0 F6000 X139.449 Y149.632
G1 F900 X166.867 Y177.049 E121.24462
G0 F6000 X166.301 Y177.049
G1 F900 X139.449 Y150.197 E122.50765
G0 F6000 X139.449 Y150.763
G1 F900 X165.735 Y177.049 E123.74407
G0 F6000 X165.17 Y177.049
G1 F900 X139.449 Y151.329 E124.95388
G0 F6000 X139.449 Y151.895
G1 F900 X164.604 Y177.049 E126.13707
G0 F6000 X164.038 Y177.049
G1 F900 X139.449 Y152.46 E127.29366
G0 F6000 X139.449 Y153.026
G1 F900 X163.473 Y177.049 E128.42365
G0 F6000 X162.907 Y177.049
G1 F900 X139.449 Y153.592 E129.52702
G0 F6000 X139.449 Y154.157
G1 F900 X162.341 Y177.049 E130.60379
G0 F6000 X161.776 Y177.049
G1 F900 X139.449 Y154.723 E131.65396
G0 F6000 X139.449 Y155.289
G1 F900 X161.21 Y177.049 E132.67751
G0 F6000 X160.644 Y177.049
G1 F900 X139.449 Y155.854 E133.67446
G0 F6000 X139.449 Y156.42
G1 F900 X160.079 Y177.049 E134.64481
G0 F6000 X159.513 Y177.049
G1 F900 X139.449 Y156.986 E135.58853
G0 F6000 X139.449 Y157.551
G1 F900 X158.947 Y177.049 E136.50566
G0 F6000 X158.382 Y177.049
G1 F900 X139.449 Y158.117 E137.39618
G0 F6000 X139.449 Y158.683
G1 F900 X157.816 Y177.049 E138.26009
G0 F6000 X157.25 Y177.049
G1 F900 X139.449 Y159.248 E139.09739
G0 F6000 X139.449 Y159.814
G1 F900 X156.684 Y177.049 E139.90807
G0 F6000 X156.119 Y177.049
G1 F900 X139.449 Y160.38 E140.69216
G0 F6000 X139.449 Y160.945
G1 F900 X155.553 Y177.049 E141.44964
G0 F6000 X154.987 Y177.049
G1 F900 X139.449 Y161.511 E142.1805
G0 F6000 X139.449 Y162.077
G1 F900 X154.422 Y177.049 E142.88476
G0 F6000 X153.856 Y177.049
G1 F900 X139.449 Y162.643 E143.5624
G0 F6000 X139.449 Y163.208
G1 F900 X153.29 Y177.049 E144.21344
G0 F6000 X152.725 Y177.049
G1 F900 X139.449 Y163.774 E144.83787
G0 F6000 X139.449 Y164.34
G1 F900 X152.159 Y177.049 E145.43569
G0 F6000 X151.593 Y177.049
G1 F900 X139.449 Y164.905 E146.00691
G0 F6000 X139.449 Y165.471
G1 F900 X151.028 Y177.049 E146.55152
G0 F6000 X150.462 Y177.049
G1 F900 X139.449 Y166.037 E147.06952
G0 F6000 X139.449 Y166.602
G1 F900 X149.896 Y177.049 E147.56091
G0 F6000 X149.331 Y177.049
G1 F900 X139.449 Y167.168 E148.02571
G0 F6000 X139.449 Y167.734
G1 F900 X148.765 Y177.049 E148.46388
G0 F6000 X148.199 Y177.049
G1 F900 X139.449 Y168.299 E148.87545
G0 F6000 X139.449 Y168.865
G1 F900 X147.633 Y177.049 E149.2604
G0 F6000 X147.068 Y177.049
G1 F900 X139.449 Y169.431 E149.61876
G0 F6000 X139.449 Y169.996
G1 F900 X146.502 Y177.049 E149.95051
G0 F6000 X145.936 Y177.049
G1 F900 X139.449 Y170.562 E150.25564
G0 F6000 X139.449 Y171.128
G1 F900 X145.371 Y177.049 E150.53416
G0 F6000 X144.805 Y177.049
G1 F900 X139.449 Y171.694 E150.78607
G0 F6000 X139.449 Y172.259
G1 F900 X144.239 Y177.049 E151.01138
G0 F6000 X143.674 Y177.049
G1 F900 X139.449 Y172.825 E151.21009
G0 F6000 X139.449 Y173.391
G1 F900 X143.108 Y177.049 E151.38217
G0 F6000 X142.542 Y177.049
G1 F900 X139.449 Y173.956 E151.52766
G0 F6000 X139.449 Y174.522
G1 F900 X141.977 Y177.049 E151.64654
G0 F6000 X141.411 Y177.049
G1 F900 X139.449 Y175.088 E151.7388
G0 F6000 X139.449 Y175.653
G1 F900 X140.845 Y177.049 E151.80447
G0 F6000 X140.28 Y177.049
G1 F900 X139.449 Y176.219 E151.84353
G0 F6000 X139.449 Y176.785
G1 F900 X139.714 Y177.049 E151.85597
G1 F1500 E145.35597
G0 F6000 X139.714 Y177.49
G0 X139.082 Y177.418
