;FLAVOR:Marlin
;TIME:8326
;Filament used: 8.88116m
;Layer height: 0.2
;MINX:114.347
;MINY:142.7
;MINZ:0.2
;MAXX:219.8
;MAXY:182.3
;MAXZ:20
;Generated with Cura_SteamEngine 4.13.0
M140 S70
M105
M190 S70
M104 S215
M105
M109 S215
M82 ;absolute extrusion mode
G21 
G90
M82
M107
G28 X0 Y0
G28 Z0
G1 Z3.0 F3000
G92 E0
G1 X20 Y20.0 Z0.28 F3000
G92 E0
G1 X10 Y10.0 Z0.28 F3000.0
G1 X10 Y170.0 Z0.28 F1500.0 E12
G1 X10.3 Y10.0 Z0.28 F1500.0 E18
G92 E0
G1 Z1.0 F3000
M117 Printing
G5
G92 E0
G92 E0
G1 F1500 E-6.5
;LAYER_COUNT:100
;LAYER:0
M107
;MESH:shassi.stl
G0 F6000 X218.6 Y179.723 Z0.2
;TYPE:WALL-INNER
G1 F1500 E0
G1 F900 X116.4 Y179.724 E3.39919
G1 X116.4 Y145.276 E4.54493
G1 X218.6 Y145.277 E7.94412
G1 X218.6 Y179.723 E9.0898
G0 F6000 X219 Y180.123
G1 F900 X116 Y180.124 E12.51559
G1 X116 Y144.876 E13.68794
G1 X219 Y144.877 E17.11374
G1 X219 Y180.123 E18.28602
G0 F6000 X219.4 Y180.523
G1 F900 X115.6 Y180.524 E21.73843
G1 X115.6 Y144.476 E22.93739
G1 X219.4 Y144.477 E26.38979
G1 X219.4 Y180.523 E27.58868
G0 F6000 X219.8 Y180.923
;TYPE:WALL-OUTER
G1 F900 X115.2 Y180.924 E31.06769
G1 X115.2 Y144.076 E32.29326
G1 X219.8 Y144.077 E35.77227
G1 X219.8 Y180.923 E36.99778
G0 F6000 X219.53 Y180.653
G0 X218.49 Y179.333
G0 X218.21 Y179.333
;TYPE:SKIN
G1 F900 X116.79 Y179.334 E40.37102
G1 X116.79 Y145.666 E41.49082
G1 X218.21 Y145.667 E44.86406
G1 X218.21 Y179.333 E45.9838
G1 F1500 E39.4838
G0 F6000 X218.49 Y179.333
G0 X218.49 Y146.207
G1 F1500 E45.9838
G0 F6000 X218.049 Y146.207
G1 F900 X217.668 Y145.826 E46.00172
G0 F6000 X217.102 Y145.826
G1 F900 X218.049 Y146.773 E46.04626
G0 F6000 X218.049 Y147.339
G1 F900 X216.537 Y145.826 E46.11741
G0 F6000 X215.971 Y145.826
G1 F900 X218.049 Y147.904 E46.21515
G0 F6000 X218.049 Y148.47
G1 F900 X215.405 Y145.826 E46.33952
G0 F6000 X214.84 Y145.826
G1 F900 X218.049 Y149.036 E46.49048
G0 F6000 X218.049 Y149.601
G1 F900 X214.274 Y145.826 E46.66805
G0 F6000 X213.708 Y145.826
G1 F900 X218.049 Y150.167 E46.87223
G0 F6000 X218.049 Y150.733
G1 F900 X213.143 Y145.826 E47.10302
G0 F6000 X212.577 Y145.826
G1 F900 X218.049 Y151.298 E47.36041
G0 F6000 X218.049 Y151.864
G1 F900 X212.011 Y145.826 E47.64442
G0 F6000 X211.446 Y145.826
G1 F900 X218.049 Y152.43 E47.95502
G0 F6000 X218.049 Y152.995
G1 F900 X210.88 Y145.826 E48.29223
G0 F6000 X210.314 Y145.826
G1 F900 X218.049 Y153.561 E48.65606
G0 F6000 X218.049 Y154.127
G1 F900 X209.749 Y145.826 E49.04649
G0 F6000 X209.183 Y145.826
G1 F900 X218.049 Y154.693 E49.46355
G0 F6000 X218.049 Y155.258
G1 F900 X208.617 Y145.826 E49.9072
G0 F6000 X208.052 Y145.826
G1 F900 X218.049 Y155.824 E50.37745
G0 F6000 X218.049 Y156.39
G1 F900 X207.486 Y145.826 E50.87432
G0 F6000 X206.92 Y145.826
G1 F900 X218.049 Y156.955 E51.3978
G0 F6000 X218.049 Y157.521
G1 F900 X206.354 Y145.826 E51.94789
G0 F6000 X205.789 Y145.826
G1 F900 X218.049 Y158.087 E52.52459
G0 F6000 X218.049 Y158.652
G1 F900 X205.223 Y145.826 E53.12789
G0 F6000 X204.657 Y145.826
G1 F900 X218.049 Y159.218 E53.75781
G0 F6000 X218.049 Y159.784
G1 F900 X204.092 Y145.826 E54.41432
G0 F6000 X203.526 Y145.826
G1 F900 X218.049 Y160.349 E55.09744
G0 F6000 X218.049 Y160.915
G1 F900 X202.96 Y145.826 E55.80718
G0 F6000 X202.395 Y145.826
G1 F900 X218.049 Y161.481 E56.54352
G0 F6000 X218.049 Y162.046
G1 F900 X201.829 Y145.826 E57.30646
G0 F6000 X201.263 Y145.826
G1 F900 X218.049 Y162.612 E58.09602
G0 F6000 X218.049 Y163.178
G1 F900 X200.698 Y145.826 E58.91218
G0 F6000 X200.132 Y145.826
G1 F900 X218.049 Y163.744 E59.75497
G0 F6000 X218.049 Y164.309
G1 F900 X199.566 Y145.826 E60.62435
G0 F6000 X199.001 Y145.826
G1 F900 X218.049 Y164.875 E61.52033
G0 F6000 X218.049 Y165.441
G1 F900 X198.435 Y145.826 E62.44294
G0 F6000 X197.869 Y145.826
G1 F900 X218.049 Y166.006 E63.39215
G0 F6000 X218.049 Y166.572
G1 F900 X197.304 Y145.826 E64.36795
G0 F6000 X196.738 Y145.826
G1 F900 X218.049 Y167.138 E65.37038
G0 F6000 X218.049 Y167.703
G1 F900 X196.172 Y145.826 E66.3994
G0 F6000 X195.606 Y145.826
G1 F900 X218.049 Y168.269 E67.45505
G0 F6000 X218.049 Y168.835
G1 F900 X195.041 Y145.826 E68.5373
G0 F6000 X194.475 Y145.826
G1 F900 X218.049 Y169.4 E69.64615
G0 F6000 X218.049 Y169.966
G1 F900 X193.909 Y145.826 E70.78162
G0 F6000 X193.344 Y145.826
G1 F900 X218.049 Y170.532 E71.9437
G0 F6000 X218.049 Y171.097
G1 F900 X192.778 Y145.826 E73.13237
G0 F6000 X192.212 Y145.826
G1 F900 X218.049 Y171.663 E74.34766
G0 F6000 X218.049 Y172.229
G1 F900 X191.647 Y145.826 E75.58955
G0 F6000 X191.081 Y145.826
G1 F900 X218.049 Y172.794 E76.85804
G0 F6000 X218.049 Y173.36
G1 F900 X190.515 Y145.826 E78.15316
G0 F6000 X189.95 Y145.826
G1 F900 X218.049 Y173.926 E79.47487
G0 F6000 X218.049 Y174.492
G1 F900 X189.384 Y145.826 E80.82321
G0 F6000 X188.818 Y145.826
G1 F900 X218.049 Y175.057 E82.19815
G0 F6000 X218.049 Y175.623
G1 F900 X188.253 Y145.826 E83.59968
G0 F6000 X187.687 Y145.826
G1 F900 X218.049 Y176.189 E85.02784
G0 F6000 X218.049 Y176.754
G1 F900 X187.121 Y145.826 E86.4826
G0 F6000 X186.555 Y145.826
G1 F900 X218.049 Y177.32 E87.96398
G0 F6000 X218.049 Y177.886
G1 F900 X185.99 Y145.826 E89.47196
G0 F6000 X185.424 Y145.826
G1 F900 X218.049 Y178.451 E91.00654
G0 F6000 X218.049 Y179.017
G1 F900 X184.858 Y145.826 E92.56774
G0 F6000 X184.293 Y145.826
G1 F900 X217.639 Y179.173 E94.13626
G0 F6000 X217.074 Y179.173
G1 F900 X183.727 Y145.826 E95.7048
G0 F6000 X183.161 Y145.826
G1 F900 X216.508 Y179.173 E97.27334
G0 F6000 X215.942 Y179.173
G1 F900 X182.596 Y145.826 E98.84186
G0 F6000 X182.03 Y145.826
G1 F900 X215.376 Y179.173 E100.41038
G0 F6000 X214.811 Y179.173
G1 F900 X181.464 Y145.826 E101.97892
G0 F6000 X180.899 Y145.826
G1 F900 X214.245 Y179.173 E103.54744
G0 F6000 X213.679 Y179.173
G1 F900 X180.333 Y145.826 E105.11595
G0 F6000 X179.767 Y145.826
G1 F900 X213.114 Y179.173 E106.68449
G0 F6000 X212.548 Y179.173
G1 F900 X179.202 Y145.826 E108.25301
G0 F6000 X178.636 Y145.826
G1 F900 X211.982 Y179.173 E109.82153
G0 F6000 X211.417 Y179.173
G1 F900 X178.07 Y145.826 E111.39007
G0 F6000 X177.505 Y145.826
G1 F900 X210.851 Y179.173 E112.95858
G0 F6000 X210.285 Y179.173
G1 F900 X176.939 Y145.826 E114.5271
G0 F6000 X176.373 Y145.826
G1 F900 X209.72 Y179.173 E116.09564
G0 F6000 X209.154 Y179.173
G1 F900 X175.807 Y145.826 E117.66418
G0 F6000 X175.242 Y145.826
G1 F900 X208.588 Y179.173 E119.2327
G0 F6000 X208.023 Y179.173
G1 F900 X174.676 Y145.826 E120.80124
G0 F6000 X174.11 Y145.826
G1 F900 X207.457 Y179.173 E122.36978
G0 F6000 X206.891 Y179.173
G1 F900 X173.545 Y145.826 E123.9383
G0 F6000 X172.979 Y145.826
G1 F900 X206.325 Y179.173 E125.50682
G0 F6000 X205.76 Y179.173
G1 F900 X172.413 Y145.826 E127.07536
G0 F6000 X171.848 Y145.826
G1 F900 X205.194 Y179.173 E128.64387
G0 F6000 X204.628 Y179.173
G1 F900 X171.282 Y145.826 E130.21239
G0 F6000 X170.716 Y145.826
G1 F900 X204.063 Y179.173 E131.78093
G0 F6000 X203.497 Y179.173
G1 F900 X170.151 Y145.826 E133.34945
G0 F6000 X169.585 Y145.826
G1 F900 X202.931 Y179.173 E134.91797
G0 F6000 X202.366 Y179.173
G1 F900 X169.019 Y145.826 E136.48651
G0 F6000 X168.454 Y145.826
G1 F900 X201.8 Y179.173 E138.05502
G0 F6000 X201.234 Y179.173
G1 F900 X167.888 Y145.826 E139.62354
G0 F6000 X167.321 Y145.825
G1 F900 X200.669 Y179.173 E141.19213
G0 F6000 X200.103 Y179.173
G1 F900 X166.756 Y145.825 E142.76069
G0 F6000 X166.19 Y145.825
G1 F900 X199.537 Y179.173 E144.32926
G0 F6000 X198.972 Y179.173
G1 F900 X165.624 Y145.825 E145.89784
G0 F6000 X165.059 Y145.825
G1 F900 X198.406 Y179.173 E147.46641
G0 F6000 X197.84 Y179.173
G1 F900 X164.493 Y145.825 E149.03497
G0 F6000 X163.927 Y145.825
G1 F900 X197.275 Y179.173 E150.60356
G0 F6000 X196.709 Y179.173
G1 F900 X163.362 Y145.825 E152.17212
G0 F6000 X162.796 Y145.825
G1 F900 X196.143 Y179.173 E153.74069
G0 F6000 X195.577 Y179.173
G1 F900 X162.23 Y145.825 E155.30925
G0 F6000 X161.665 Y145.825
G1 F900 X195.012 Y179.173 E156.87782
G0 F6000 X194.446 Y179.173
G1 F900 X161.099 Y145.825 E158.44638
G0 F6000 X160.533 Y145.825
G1 F900 X193.88 Y179.173 E160.01495
G0 F6000 X193.315 Y179.173
G1 F900 X159.968 Y145.825 E161.58351
G0 F6000 X159.402 Y145.825
G1 F900 X192.749 Y179.173 E163.15207
G0 F6000 X192.183 Y179.173
G1 F900 X158.836 Y145.825 E164.72064
G0 F6000 X158.271 Y145.825
G1 F900 X191.618 Y179.173 E166.2892
G0 F6000 X191.052 Y179.173
G1 F900 X157.705 Y145.825 E167.85777
G0 F6000 X157.139 Y145.825
G1 F900 X190.486 Y179.173 E169.42633
G0 F6000 X189.921 Y179.173
G1 F900 X156.573 Y145.825 E170.99492
G0 F6000 X156.008 Y145.825
G1 F900 X189.355 Y179.173 E172.56348
G0 F6000 X188.789 Y179.173
G1 F900 X155.442 Y145.825 E174.13205
G0 F6000 X154.876 Y145.825
G1 F900 X188.224 Y179.173 E175.70063
G0 F6000 X187.658 Y179.173
G1 F900 X154.311 Y145.825 E177.2692
G0 F6000 X153.745 Y145.825
G1 F900 X187.092 Y179.173 E178.83776
G0 F6000 X186.526 Y179.173
G1 F900 X153.179 Y145.825 E180.40633
G0 F6000 X152.614 Y145.825
G1 F900 X185.961 Y179.173 E181.97489
G0 F6000 X185.395 Y179.173
G1 F900 X152.048 Y145.825 E183.54345
G0 F6000 X151.482 Y145.825
G1 F900 X184.829 Y179.173 E185.11202
G0 F6000 X184.264 Y179.173
G1 F900 X150.917 Y145.825 E186.68058
G0 F6000 X150.351 Y145.825
G1 F900 X183.698 Y179.173 E188.24915
G0 F6000 X183.132 Y179.173
G1 F900 X149.785 Y145.825 E189.81771
G0 F6000 X149.22 Y145.825
G1 F900 X182.567 Y179.173 E191.38628
G0 F6000 X182.001 Y179.173
G1 F900 X148.654 Y145.825 E192.95484
G0 F6000 X148.088 Y145.825
G1 F900 X181.435 Y179.173 E194.5234
G0 F6000 X180.87 Y179.173
G1 F900 X147.522 Y145.825 E196.09199
G0 F6000 X146.957 Y145.825
G1 F900 X180.304 Y179.173 E197.66056
G0 F6000 X179.738 Y179.173
G1 F900 X146.391 Y145.825 E199.22912
G0 F6000 X145.825 Y145.825
G1 F900 X179.173 Y179.173 E200.79771
G0 F6000 X178.607 Y179.173
G1 F900 X145.26 Y145.825 E202.36627
G0 F6000 X144.694 Y145.825
G1 F900 X178.041 Y179.173 E203.93484
G0 F6000 X177.476 Y179.173
G1 F900 X144.128 Y145.825 E205.50342
G0 F6000 X143.563 Y145.825
G1 F900 X176.91 Y179.173 E207.07199
G0 F6000 X176.344 Y179.173
G1 F900 X142.997 Y145.825 E208.64055
G0 F6000 X142.431 Y145.825
G1 F900 X175.778 Y179.173 E210.20912
G0 F6000 X175.213 Y179.173
G1 F900 X141.866 Y145.825 E211.77768
G0 F6000 X141.3 Y145.825
G1 F900 X174.647 Y179.173 E213.34624
G0 F6000 X174.081 Y179.173
G1 F900 X140.734 Y145.825 E214.91481
G0 F6000 X140.169 Y145.825
G1 F900 X173.516 Y179.173 E216.48337
G0 F6000 X172.95 Y179.173
G1 F900 X139.603 Y145.825 E218.05194
G0 F6000 X139.037 Y145.825
G1 F900 X172.384 Y179.173 E219.6205
G0 F6000 X171.819 Y179.173
G1 F900 X138.472 Y145.825 E221.18906
G0 F6000 X137.906 Y145.825
G1 F900 X171.253 Y179.173 E222.75763
G0 F6000 X170.687 Y179.173
G1 F900 X137.34 Y145.825 E224.32619
G0 F6000 X136.774 Y145.825
G1 F900 X170.122 Y179.173 E225.89478
G0 F6000 X169.556 Y179.173
G1 F900 X136.209 Y145.825 E227.46335
G0 F6000 X135.643 Y145.825
G1 F900 X168.99 Y179.173 E229.03191
G0 F6000 X168.425 Y179.173
G1 F900 X135.077 Y145.825 E230.6005
G0 F6000 X134.512 Y145.825
G1 F900 X167.859 Y179.173 E232.16906
G0 F6000 X167.293 Y179.173
G1 F900 X133.946 Y145.825 E233.73763
G0 F6000 X133.38 Y145.825
G1 F900 X166.728 Y179.173 E235.30621
G0 F6000 X166.162 Y179.173
G1 F900 X132.815 Y145.825 E236.87478
G0 F6000 X132.249 Y145.825
G1 F900 X165.596 Y179.173 E238.44334
G0 F6000 X165.03 Y179.173
G1 F900 X131.683 Y145.825 E240.01191
G0 F6000 X131.118 Y145.825
G1 F900 X164.465 Y179.173 E241.58047
G0 F6000 X163.899 Y179.173
G1 F900 X130.552 Y145.825 E243.14903
G0 F6000 X129.986 Y145.825
G1 F900 X163.333 Y179.173 E244.7176
G0 F6000 X162.768 Y179.173
G1 F900 X129.421 Y145.825 E246.28616
G0 F6000 X128.855 Y145.825
G1 F900 X162.202 Y179.173 E247.85473
G0 F6000 X161.636 Y179.173
G1 F900 X128.289 Y145.825 E249.42329
G0 F6000 X127.723 Y145.825
G1 F900 X161.071 Y179.173 E250.99188
G0 F6000 X160.505 Y179.173
G1 F900 X127.158 Y145.825 E252.56044
G0 F6000 X126.592 Y145.825
G1 F900 X159.939 Y179.173 E254.12901
G0 F6000 X159.374 Y179.173
G1 F900 X126.026 Y145.825 E255.69759
G0 F6000 X125.461 Y145.825
G1 F900 X158.808 Y179.173 E257.26616
G0 F6000 X158.242 Y179.173
G1 F900 X124.895 Y145.825 E258.83472
G0 F6000 X124.329 Y145.825
G1 F900 X157.677 Y179.173 E260.40331
G0 F6000 X157.111 Y179.173
G1 F900 X123.764 Y145.825 E261.97187
G0 F6000 X123.198 Y145.825
G1 F900 X156.545 Y179.173 E263.54044
G0 F6000 X155.979 Y179.173
G1 F900 X122.632 Y145.825 E265.109
G0 F6000 X122.067 Y145.825
G1 F900 X155.414 Y179.173 E266.67757
G0 F6000 X154.848 Y179.173
G1 F900 X121.501 Y145.825 E268.24613
G0 F6000 X120.935 Y145.825
G1 F900 X154.282 Y179.173 E269.81469
G0 F6000 X153.717 Y179.173
G1 F900 X120.37 Y145.825 E271.38326
G0 F6000 X119.804 Y145.825
G1 F900 X153.151 Y179.173 E272.95182
G0 F6000 X152.585 Y179.173
G1 F900 X119.238 Y145.825 E274.52039
G0 F6000 X118.673 Y145.825
G1 F900 X152.02 Y179.173 E276.08895
G0 F6000 X151.454 Y179.173
G1 F900 X118.107 Y145.825 E277.65752
G0 F6000 X117.541 Y145.825
G1 F900 X150.888 Y179.173 E279.22608
G0 F6000 X150.323 Y179.173
G1 F900 X116.975 Y145.825 E280.79467
G0 F6000 X116.949 Y146.365
G1 F900 X149.757 Y179.173 E282.33786
G0 F6000 X149.191 Y179.173
G1 F900 X116.949 Y146.931 E283.85442
G0 F6000 X116.949 Y147.496
G1 F900 X148.626 Y179.173 E285.34441
G0 F6000 X148.06 Y179.173
G1 F900 X116.949 Y148.062 E286.80778
G0 F6000 X116.949 Y148.628
G1 F900 X147.494 Y179.173 E288.24452
G0 F6000 X146.929 Y179.173
G1 F900 X116.949 Y149.193 E289.65469
G0 F6000 X116.949 Y149.759
G1 F900 X146.363 Y179.173 E291.03823
G0 F6000 X145.797 Y179.173
G1 F900 X116.949 Y150.325 E292.39515
G0 F6000 X116.949 Y150.89
G1 F900 X145.231 Y179.173 E293.72547
G0 F6000 X144.666 Y179.173
G1 F900 X116.949 Y151.456 E295.0292
G0 F6000 X116.949 Y152.022
G1 F900 X144.1 Y179.173 E296.3063
G0 F6000 X143.534 Y179.173
G1 F900 X116.949 Y152.587 E297.5568
G0 F6000 X116.949 Y153.153
G1 F900 X142.969 Y179.173 E298.7807
G0 F6000 X142.403 Y179.173
G1 F900 X116.949 Y153.719 E299.97798
G0 F6000 X116.949 Y154.285
G1 F900 X141.837 Y179.173 E301.14863
G0 F6000 X141.272 Y179.173
G1 F900 X116.949 Y154.85 E302.29271
G0 F6000 X116.949 Y155.416
G1 F900 X140.706 Y179.173 E303.41017
G0 F6000 X140.14 Y179.173
G1 F900 X116.949 Y155.982 E304.501
G0 F6000 X116.949 Y156.547
G1 F900 X139.575 Y179.173 E305.56526
G0 F6000 X139.009 Y179.173
G1 F900 X116.949 Y157.113 E306.60289
G0 F6000 X116.949 Y157.679
G1 F900 X138.443 Y179.173 E307.6139
G0 F6000 X137.878 Y179.173
G1 F900 X116.949 Y158.244 E308.59834
G0 F6000 X116.949 Y158.81
G1 F900 X137.312 Y179.173 E309.55615
G0 F6000 X136.746 Y179.173
G1 F900 X116.949 Y159.376 E310.48734
G0 F6000 X116.949 Y159.941
G1 F900 X136.18 Y179.173 E311.39193
G0 F6000 X135.615 Y179.173
G1 F900 X116.949 Y160.507 E312.26993
G0 F6000 X116.949 Y161.073
G1 F900 X135.049 Y179.173 E313.12129
G0 F6000 X134.483 Y179.173
G1 F900 X116.949 Y161.638 E313.94606
G0 F6000 X116.949 Y162.204
G1 F900 X133.918 Y179.173 E314.74423
G0 F6000 X133.352 Y179.173
G1 F900 X116.949 Y162.77 E315.51578
G0 F6000 X116.949 Y163.336
G1 F900 X132.786 Y179.173 E316.2607
G0 F6000 X132.221 Y179.173
G1 F900 X116.949 Y163.901 E316.97905
G0 F6000 X116.949 Y164.467
G1 F900 X131.655 Y179.173 E317.67078
G0 F6000 X131.089 Y179.173
G1 F900 X116.949 Y165.033 E318.33588
G0 F6000 X116.949 Y165.598
G1 F900 X130.524 Y179.173 E318.97441
G0 F6000 X129.958 Y179.173
G1 F900 X116.949 Y166.164 E319.58631
G0 F6000 X116.949 Y166.73
G1 F900 X129.392 Y179.173 E320.17159
G0 F6000 X128.827 Y179.173
G1 F900 X116.949 Y167.295 E320.73029
G0 F6000 X116.949 Y167.861
G1 F900 X128.261 Y179.173 E321.26238
G0 F6000 X127.695 Y179.173
G1 F900 X116.949 Y168.427 E321.76784
G0 F6000 X116.949 Y168.992
G1 F900 X127.13 Y179.173 E322.24672
G0 F6000 X126.564 Y179.173
G1 F900 X116.949 Y169.558 E322.69898
