;FLAVOR:Marlin
;TIME:1909
;Filament used: 1.94424m
;Layer height: 0.2
;MINX:145.308
;MINY:145.057
;MINZ:0.2
;MAXX:189.688
;MAXY:179.828
;MAXZ:8
;Generated with Cura_SteamEngine 4.13.0
M140 S70
M105
M190 S70
M104 S215
M105
M109 S215
M82 ;absolute extrusion mode
G21 
G90
M82
M107
G28 X0 Y0
G28 Z0
G1 Z3.0 F3000
G92 E0
G1 X20 Y20.0 Z0.28 F3000
G92 E0
G1 X10 Y10.0 Z0.28 F3000.0
G1 X10 Y170.0 Z0.28 F1500.0 E12
G1 X10.3 Y10.0 Z0.28 F1500.0 E18
G92 E0
G1 Z1.0 F3000
M117 Printing
G5
G92 E0
G92 E0
G1 F1500 E-6.5
;LAYER_COUNT:40
;LAYER:0
M107
G0 F6000 X147.25 Y146.972 Z0.2
;TYPE:SKIRT
G1 F1500 E0
G1 F900 X187.75 Y146.973 E1.68379
G1 X187.75 Y147.849 E1.72021
G1 X147.25 Y147.85 E3.40401
G1 X147.25 Y146.972 E3.44051
G0 F6000 X146.75 Y146.472
G1 F900 X188.25 Y146.473 E5.16588
G1 X188.25 Y148.349 E5.24388
G1 X146.75 Y148.35 E6.96925
G1 X146.75 Y146.472 E7.04732
G0 F6000 X146.25 Y146.4
G1 F900 X146.222 Y145.972 E7.06516
G1 X188.777 Y145.973 E8.83439
G1 X188.752 Y146.37 E8.85093
G1 X188.75 Y146.399 E8.85213
G1 X188.75 Y148.849 E8.95399
G1 X146.25 Y148.85 E10.72094
G1 X146.25 Y146.4 E10.8228
G1 F1500 E4.3228
G0 F6000 X145.339 Y149.743
G0 X145.339 Y175.258
G0 X146.25 Y176.151
G1 F1500 E10.8228
G1 F900 X188.75 Y176.15 E12.58974
G1 X188.75 Y178.6 E12.6916
G1 X188.778 Y179.028 E12.70943
G1 X146.223 Y179.027 E14.47866
G1 X146.223 Y178.79 E14.48852
G1 X146.25 Y178.407 E14.50448
G1 X146.25 Y176.151 E14.59827
G0 F6000 X146.75 Y176.651
G1 F900 X188.25 Y176.65 E16.32364
G1 X188.25 Y178.528 E16.40172
G1 X146.743 Y178.527 E18.12738
G1 X146.75 Y178.407 E18.13238
G1 X146.75 Y176.651 E18.20539
G0 F6000 X147.25 Y177.151
G1 F900 X187.75 Y177.15 E19.88918
G1 X187.75 Y178.028 E19.92568
G1 X147.25 Y178.027 E21.60948
G1 X147.25 Y177.151 E21.6459
G1 F1500 E15.1459
;MESH:????????????.STL
G0 F6000 X147.25 Y174.7
G0 X187.6 Y173.7
;TYPE:WALL-INNER
G1 F1500 E21.6459
G1 F900 X147.4 Y173.701 E22.98295
G1 X147.4 Y151.3 E23.72801
G1 X187.6 Y151.299 E25.06507
G1 X187.6 Y173.7 E25.81013
G0 F6000 X188 Y174.1
G1 F900 X147 Y174.101 E27.1738
G1 X147 Y150.9 E27.94547
G1 X188 Y150.899 E29.30913
G1 X188 Y174.1 E30.0808
G0 F6000 X188.4 Y174.5
G1 F900 X146.6 Y174.501 E31.47107
G1 X146.6 Y150.5 E32.26935
G1 X188.4 Y150.499 E33.65962
G1 X188.4 Y174.5 E34.4579
G0 F6000 X188.8 Y174.9
;TYPE:WALL-OUTER
G1 F900 X146.2 Y174.901 E35.87478
G1 X146.2 Y150.1 E36.69967
G1 X188.8 Y150.099 E38.11655
G1 X188.8 Y174.9 E38.94143
G0 F6000 X188.53 Y174.63
G0 X187.49 Y173.31
G0 X187.21 Y173.31
;TYPE:SKIN
G1 F900 X147.79 Y173.311 E40.25255
G1 X147.79 Y151.69 E40.97167
G1 X187.21 Y151.689 E42.28278
G1 X187.21 Y173.31 E43.0019
G0 F6000 X187.49 Y173.31
G0 X187.49 Y151.976
G0 X187.048 Y151.976
G1 F900 X186.921 Y151.849 E43.00787
G0 F6000 X186.355 Y151.849
G1 F900 X187.048 Y152.542 E43.04047
G0 F6000 X187.048 Y153.107
G1 F900 X185.79 Y151.849 E43.09964
G0 F6000 X185.224 Y151.849
G1 F900 X187.048 Y153.673 E43.18544
G0 F6000 X187.048 Y154.239
G1 F900 X184.658 Y151.849 E43.29785
G0 F6000 X184.093 Y151.849
G1 F900 X187.048 Y154.804 E43.43685
G0 F6000 X187.048 Y155.37
G1 F900 X183.527 Y151.849 E43.60246
G0 F6000 X182.961 Y151.849
G1 F900 X187.048 Y155.936 E43.7947
G0 F6000 X187.048 Y156.501
G1 F900 X182.396 Y151.849 E44.01352
G0 F6000 X181.83 Y151.849
G1 F900 X187.048 Y157.067 E44.25896
G0 F6000 X187.048 Y157.633
G1 F900 X181.264 Y151.849 E44.53102
G0 F6000 X180.699 Y151.849
G1 F900 X187.048 Y158.198 E44.82966
G0 F6000 X187.048 Y158.764
G1 F900 X180.133 Y151.849 E45.15492
G0 F6000 X179.567 Y151.849
G1 F900 X187.048 Y159.33 E45.5068
G0 F6000 X187.048 Y159.895
G1 F900 X179.001 Y151.849 E45.88528
G0 F6000 X178.436 Y151.849
G1 F900 X187.048 Y160.461 E46.29037
G0 F6000 X187.048 Y161.027
G1 F900 X177.87 Y151.849 E46.72207
G0 F6000 X177.304 Y151.849
G1 F900 X187.048 Y161.592 E47.18038
G0 F6000 X187.048 Y162.158
G1 F900 X176.739 Y151.849 E47.66528
G0 F6000 X176.173 Y151.849
G1 F900 X187.048 Y162.724 E48.17681
G0 F6000 X187.048 Y163.29
G1 F900 X175.607 Y151.849 E48.71496
G0 F6000 X175.042 Y151.849
G1 F900 X187.048 Y163.855 E49.27968
G0 F6000 X187.048 Y164.421
G1 F900 X174.476 Y151.849 E49.87103
G0 F6000 X173.91 Y151.849
G1 F900 X187.048 Y164.987 E50.489
G0 F6000 X187.048 Y165.552
G1 F900 X173.345 Y151.849 E51.13355
G0 F6000 X172.779 Y151.849
G1 F900 X187.048 Y166.118 E51.80472
G0 F6000 X187.048 Y166.684
G1 F900 X172.213 Y151.849 E52.50251
G0 F6000 X171.648 Y151.849
G1 F900 X187.048 Y167.249 E53.22688
G0 F6000 X187.048 Y167.815
G1 F900 X171.082 Y151.849 E53.97787
G0 F6000 X170.516 Y151.849
G1 F900 X187.048 Y168.381 E54.75549
G0 F6000 X187.048 Y168.946
G1 F900 X169.95 Y151.849 E55.5597
G0 F6000 X169.385 Y151.849
G1 F900 X187.048 Y169.512 E56.39051
G0 F6000 X187.048 Y170.078
G1 F900 X168.819 Y151.849 E57.24795
G0 F6000 X168.253 Y151.849
G1 F900 X187.048 Y170.643 E58.13199
G0 F6000 X187.048 Y171.209
G1 F900 X167.688 Y151.849 E59.04262
G0 F6000 X167.122 Y151.849
G1 F900 X187.048 Y171.775 E59.97988
G0 F6000 X187.048 Y172.341
G1 F900 X166.556 Y151.849 E60.94376
G0 F6000 X165.991 Y151.849
G1 F900 X187.048 Y172.906 E61.93422
G0 F6000 X186.726 Y173.149
G1 F900 X165.425 Y151.849 E62.93613
G0 F6000 X164.859 Y151.849
G1 F900 X186.16 Y173.149 E63.93804
G0 F6000 X185.595 Y173.149
G1 F900 X164.294 Y151.849 E64.93995
G0 F6000 X163.728 Y151.849
G1 F900 X185.029 Y173.149 E65.94186
G0 F6000 X184.463 Y173.149
G1 F900 X163.162 Y151.849 E66.94377
G0 F6000 X162.597 Y151.849
G1 F900 X183.897 Y173.149 E67.94565
G0 F6000 X183.332 Y173.149
G1 F900 X162.031 Y151.849 E68.94756
G0 F6000 X161.465 Y151.849
G1 F900 X182.766 Y173.149 E69.94947
G0 F6000 X182.2 Y173.149
G1 F900 X160.9 Y151.849 E70.95136
G0 F6000 X160.334 Y151.849
G1 F900 X181.635 Y173.149 E71.95327
G0 F6000 X181.069 Y173.149
G1 F900 X159.768 Y151.849 E72.95518
G0 F6000 X159.202 Y151.849
G1 F900 X180.503 Y173.149 E73.95709
G0 F6000 X179.938 Y173.149
G1 F900 X158.637 Y151.849 E74.959
G0 F6000 X158.071 Y151.849
G1 F900 X179.372 Y173.149 E75.96091
G0 F6000 X178.806 Y173.149
G1 F900 X157.505 Y151.849 E76.96282
G0 F6000 X156.94 Y151.849
G1 F900 X178.241 Y173.149 E77.96473
G0 F6000 X177.675 Y173.149
G1 F900 X156.374 Y151.849 E78.96664
G0 F6000 X155.808 Y151.849
G1 F900 X177.109 Y173.149 E79.96855
G0 F6000 X176.544 Y173.149
G1 F900 X155.243 Y151.849 E80.97046
G0 F6000 X154.677 Y151.849
G1 F900 X175.978 Y173.149 E81.97237
G0 F6000 X175.412 Y173.149
G1 F900 X154.111 Y151.849 E82.97428
G0 F6000 X153.546 Y151.849
G1 F900 X174.847 Y173.149 E83.97619
G0 F6000 X174.281 Y173.149
G1 F900 X152.98 Y151.849 E84.9781
G0 F6000 X152.414 Y151.849
G1 F900 X173.715 Y173.149 E85.98001
G0 F6000 X173.149 Y173.149
G1 F900 X151.849 Y151.849 E86.9819
G0 F6000 X151.283 Y151.849
G1 F900 X172.584 Y173.149 E87.98381
G0 F6000 X172.018 Y173.149
G1 F900 X150.717 Y151.849 E88.98572
G0 F6000 X150.152 Y151.849
G1 F900 X171.452 Y173.149 E89.98761
G0 F6000 X170.887 Y173.149
G1 F900 X149.586 Y151.849 E90.98952
G0 F6000 X149.02 Y151.849
G1 F900 X170.321 Y173.149 E91.99143
G0 F6000 X169.755 Y173.149
G1 F900 X148.454 Y151.849 E92.99334
G0 F6000 X147.95 Y151.909
G1 F900 X169.19 Y173.149 E93.9924
G0 F6000 X168.624 Y173.149
G1 F900 X147.95 Y152.475 E94.96484
G0 F6000 X147.95 Y153.041
G1 F900 X168.058 Y173.149 E95.91066
G0 F6000 X167.493 Y173.149
G1 F900 X147.95 Y153.606 E96.82991
G0 F6000 X147.95 Y154.172
G1 F900 X166.927 Y173.149 E97.72253
G0 F6000 X166.361 Y173.149
G1 F900 X147.95 Y154.738 E98.58852
G0 F6000 X147.95 Y155.303
G1 F900 X165.796 Y173.149 E99.42794
G0 F6000 X165.23 Y173.149
G1 F900 X147.95 Y155.869 E100.24074
G0 F6000 X147.95 Y156.435
G1 F900 X164.664 Y173.149 E101.02692
G0 F6000 X164.098 Y173.149
G1 F900 X147.95 Y157.001 E101.78647
G0 F6000 X147.95 Y157.566
G1 F900 X163.533 Y173.149 E102.51945
G0 F6000 X162.967 Y173.149
G1 F900 X147.95 Y158.132 E103.2258
G0 F6000 X147.95 Y158.698
G1 F900 X162.401 Y173.149 E103.90553
G0 F6000 X161.836 Y173.149
G1 F900 X147.95 Y159.263 E104.55869
G0 F6000 X147.95 Y159.829
G1 F900 X161.27 Y173.149 E105.18522
G0 F6000 X160.704 Y173.149
G1 F900 X147.95 Y160.395 E105.78513
G0 F6000 X147.95 Y160.96
G1 F900 X160.139 Y173.149 E106.35846
G0 F6000 X159.573 Y173.149
G1 F900 X147.95 Y161.526 E106.90517
G0 F6000 X147.95 Y162.092
G1 F900 X159.007 Y173.149 E107.42526
G0 F6000 X158.442 Y173.149
G1 F900 X147.95 Y162.657 E107.91877
G0 F6000 X147.95 Y163.223
G1 F900 X157.876 Y173.149 E108.38566
G0 F6000 X157.31 Y173.149
G1 F900 X147.95 Y163.789 E108.82592
G0 F6000 X147.95 Y164.354
G1 F900 X156.745 Y173.149 E109.23961
G0 F6000 X156.179 Y173.149
G1 F900 X147.95 Y164.92 E109.62668
G0 F6000 X147.95 Y165.486
G1 F900 X155.613 Y173.149 E109.98712
G0 F6000 X155.048 Y173.149
G1 F900 X147.95 Y166.052 E110.32097
G0 F6000 X147.95 Y166.617
G1 F900 X154.482 Y173.149 E110.62821
G0 F6000 X153.916 Y173.149
G1 F900 X147.95 Y167.183 E110.90884
G0 F6000 X147.95 Y167.749
G1 F900 X153.35 Y173.149 E111.16284
G0 F6000 X152.785 Y173.149
G1 F900 X147.95 Y168.314 E111.39026
G0 F6000 X147.95 Y168.88
G1 F900 X152.219 Y173.149 E111.59106
G0 F6000 X151.653 Y173.149
G1 F900 X147.95 Y169.446 E111.76524
G0 F6000 X147.95 Y170.011
G1 F900 X151.088 Y173.149 E111.91284
G0 F6000 X150.522 Y173.149
G1 F900 X147.95 Y170.577 E112.03382
G0 F6000 X147.95 Y171.143
G1 F900 X149.956 Y173.149 E112.12818
G0 F6000 X149.391 Y173.149
G1 F900 X147.95 Y171.708 E112.19596
G0 F6000 X147.95 Y172.274
G1 F900 X148.825 Y173.149 E112.23711
G0 F6000 X148.259 Y173.149
G1 F900 X147.95 Y172.84 E112.25165
G0 F6000 X147.21 Y172.84
G1 F1500 E105.75165
;MESH:NONMESH
G0 F300 X147.21 Y172.84 Z0.4
G0 F6000 X146.414 Y150.314
G0 X146.413 Y149.235
G0 X146.172 Y145.922
;TIME_ELAPSED:227.526116
;LAYER:1
M106 S85
;TYPE:SUPPORT
G1 F1500 E112.25165
G1 F2250 X188.827 Y145.923 E113.67036
G1 X188.8 Y146.388 E113.68585
G1 X188.8 Y148.699 E113.76271
G1 X146.2 Y148.7 E115.1796
G1 X146.2 Y146.387 E115.25653
G1 X146.172 Y146.176 E115.26361
G1 X146.172 Y145.922 E115.27205
G0 F7500 X146.44 Y146.187
G1 F2250 X146.465 Y146.37 E115.2782
G1 X146.465 Y148.435 E115.34688
G1 X150 Y148.435 E115.46445
G1 X150 Y146.188 E115.53919
G1 X155 Y146.188 E115.70549
G1 X155 Y148.435 E115.78023
G1 X160 Y148.435 E115.94653
G1 X160 Y146.188 E116.02126
G1 X165 Y146.188 E116.18756
G1 X165 Y148.435 E116.2623
G1 X170 Y148.435 E116.4286
G1 X170 Y146.188 E116.50333
G1 X175 Y146.188 E116.66964
G1 X175 Y148.435 E116.74437
G1 X185 Y148.435 E117.07697
G1 X185 Y146.188 E117.15171
G1 X180 Y146.188 E117.31801
G1 X180 Y148.435 E117.39274
G1 F1500 E110.89274
G0 F7500 X180 Y145.057
G0 X189.184 Y145.062
G0 X189.688 Y145.566
G0 X189.665 Y176.3
G0 X188.8 Y176.3
G1 F1500 E117.39274
G1 F2250 X188.8 Y178.613 E117.46967
G1 X188.828 Y178.824 E117.47675
G1 X188.828 Y179.078 E117.4852
G1 X146.173 Y179.077 E118.90391
G1 X146.173 Y178.804 E118.91299
G1 X146.2 Y178.414 E118.926
G1 X146.2 Y176.301 E118.99627
G1 X188.8 Y176.3 E120.41316
G0 F7500 X188.535 Y176.565
G1 F2250 X185 Y176.565 E120.53073
G1 X185 Y178.812 E120.60547
G1 X180 Y178.812 E120.77177
G1 X180 Y176.565 E120.8465
G1 X175 Y176.565 E121.0128
G1 X175 Y178.812 E121.08754
G1 X170 Y178.812 E121.25384
G1 X170 Y176.565 E121.32857
G1 X165 Y176.565 E121.49488
G1 X165 Y178.812 E121.56961
G1 X160 Y178.812 E121.73591
G1 X160 Y176.565 E121.81065
G1 X150 Y176.565 E122.14325
G1 X150 Y178.812 E122.21798
G1 X155 Y178.812 E122.38428
G1 X155 Y176.565 E122.45902
G1 F1500 E115.95902
;MESH:????????????.STL
G0 F7500 X155 Y174.9
G0 X187.6 Y173.9
;TYPE:WALL-INNER
G1 F1500 E122.45902
G1 F2250 X147.4 Y173.901 E123.79608
G1 X147.4 Y151.1 E124.55444
G1 X187.6 Y151.099 E125.8915
G1 X187.6 Y173.9 E126.64986
G0 F7500 X188 Y174.3
G1 F2250 X147 Y174.301 E128.01353
G1 X147 Y150.7 E128.7985
G1 X188 Y150.699 E130.16217
G1 X188 Y174.3 E130.94714
G0 F7500 X188.4 Y174.7
G1 F2250 X146.6 Y174.701 E132.33741
G1 X146.6 Y150.3 E133.14899
G1 X188.4 Y150.299 E134.53927
G1 X188.4 Y174.7 E135.35085
G0 F7500 X188.8 Y175.1
;TYPE:WALL-OUTER
G1 F1350 X146.2 Y175.101 E136.76773
G1 X146.2 Y149.9 E137.60592
G1 X188.8 Y149.899 E139.0228
G1 X188.8 Y175.1 E139.86099
G0 F7500 X188.53 Y174.83
G0 X187.49 Y173.51
G0 X187.21 Y173.51
;TYPE:SKIN
G1 F1350 X147.79 Y173.511 E141.1721
G1 X147.79 Y151.49 E141.90452
G1 X187.21 Y151.489 E143.21564
G1 X187.21 Y173.51 E143.94806
G0 F7500 X187.049 Y173.292
G1 F1350 X186.99 Y173.35 E143.95081
G0 F7500 X186.425 Y173.35
G1 F1350 X187.049 Y172.726 E143.98016
G0 F7500 X187.049 Y172.16
G1 F1350 X185.859 Y173.35 E144.03614
G0 F7500 X185.293 Y173.35
G1 F1350 X187.049 Y171.595 E144.11871
G0 F7500 X187.049 Y171.029
G1 F1350 X184.728 Y173.35 E144.22788
G0 F7500 X184.162 Y173.35
G1 F1350 X187.049 Y170.463 E144.36368
G0 F7500 X187.049 Y169.897
G1 F1350 X183.596 Y173.35 E144.5261
G0 F7500 X183.031 Y173.35
G1 F1350 X187.049 Y169.332 E144.71509
G0 F7500 X187.049 Y168.766
G1 F1350 X182.465 Y173.35 E144.93071
G0 F7500 X181.899 Y173.35
G1 F1350 X187.049 Y168.2 E145.17295
G0 F7500 X187.049 Y167.635
G1 F1350 X181.333 Y173.35 E145.44179
G0 F7500 X180.768 Y173.35
G1 F1350 X187.049 Y167.069 E145.73723
G0 F7500 X187.049 Y166.503
G1 F1350 X180.202 Y173.35 E146.05929
G0 F7500 X179.636 Y173.35
G1 F1350 X187.049 Y165.938 E146.40795
G0 F7500 X187.049 Y165.372
G1 F1350 X179.071 Y173.35 E146.78321
G0 F7500 X178.505 Y173.35
G1 F1350 X187.049 Y164.806 E147.1851
G0 F7500 X187.049 Y164.241
G1 F1350 X177.939 Y173.35 E147.61358
G0 F7500 X177.374 Y173.35
G1 F1350 X187.049 Y163.675 E148.06866
G0 F7500 X187.049 Y163.109
G1 F1350 X176.808 Y173.35 E148.55037
G0 F7500 X176.242 Y173.35
G1 F1350 X187.049 Y162.544 E149.05867
G0 F7500 X187.049 Y161.978
G1 F1350 X175.677 Y173.35 E149.59357
G0 F7500 X175.111 Y173.35
G1 F1350 X187.049 Y161.412 E150.1551
G0 F7500 X187.049 Y160.846
G1 F1350 X174.545 Y173.35 E150.74325
G0 F7500 X173.98 Y173.35
G1 F1350 X187.049 Y160.281 E151.35798
G0 F7500 X187.049 Y159.715
G1 F1350 X173.414 Y173.35 E151.99933
G0 F7500 X172.848 Y173.35
G1 F1350 X187.049 Y159.149 E152.6673
G0 F7500 X187.049 Y158.584
G1 F1350 X172.283 Y173.35 E153.36184
G0 F7500 X171.717 Y173.35
G1 F1350 X187.049 Y158.018 E154.08301
G0 F7500 X187.049 Y157.452
G1 F1350 X171.151 Y173.35 E154.83081
G0 F7500 X170.585 Y173.35
G1 F1350 X187.049 Y156.887 E155.6052
G0 F7500 X187.049 Y156.321
G1 F1350 X170.02 Y173.35 E156.40619
G0 F7500 X169.454 Y173.35
G1 F1350 X187.049 Y155.755 E157.23381
G0 F7500 X187.049 Y155.19
G1 F1350 X168.888 Y173.35 E158.08802
G0 F7500 X168.323 Y173.35
G1 F1350 X187.049 Y154.624 E158.96884
G0 F7500 X187.049 Y154.058
G1 F1350 X167.757 Y173.35 E159.87627
G0 F7500 X167.191 Y173.35
G1 F1350 X187.049 Y153.493 E160.81031
G0 F7500 X187.049 Y152.927
G1 F1350 X166.626 Y173.35 E161.77094
G0 F7500 X166.06 Y173.35
G1 F1350 X187.049 Y152.361 E162.7582
G0 F7500 X187.049 Y151.796
G1 F1350 X165.494 Y173.35 E163.77206
G0 F7500 X164.929 Y173.35
G1 F1350 X186.63 Y151.648 E164.79283
G0 F7500 X186.065 Y151.648
G1 F1350 X164.363 Y173.35 E165.81363
G0 F7500 X163.797 Y173.35
G1 F1350 X185.499 Y151.648 E166.83442
G0 F7500 X184.933 Y151.648
G1 F1350 X163.232 Y173.35 E167.85519
G0 F7500 X162.666 Y173.35
G1 F1350 X184.368 Y151.648 E168.87599
G0 F7500 X183.802 Y151.648
G1 F1350 X162.1 Y173.35 E169.89679
G0 F7500 X161.535 Y173.35
G1 F1350 X183.236 Y151.648 E170.91756
G0 F7500 X182.671 Y151.648
G1 F1350 X160.969 Y173.35 E171.93835
G0 F7500 X160.403 Y173.35
G1 F1350 X182.105 Y151.648 E172.95915
G0 F7500 X181.539 Y151.648
G1 F1350 X159.837 Y173.35 E173.97994
G0 F7500 X159.272 Y173.35
G1 F1350 X180.974 Y151.648 E175.00074
G0 F7500 X180.408 Y151.648
G1 F1350 X158.706 Y173.35 E176.02153
G0 F7500 X158.14 Y173.35
G1 F1350 X179.842 Y151.648 E177.04233
G0 F7500 X179.277 Y151.648
G1 F1350 X157.575 Y173.35 E178.06313
